X: 42749
T: White Horses, The
R: reel
M: 4/4
K: Dmixolydian
|Addd fage|d2AB cAGE|Gccc e=fdB|cdef g2 ag|
fage d2ed|ccBd cAGc|ADFA d2af|gbag fddc:|
Addd AGFA|d2Ad fedc|Accc AGEG|c2Gc efge|
fage d2ed|ccBd cAGc|ADFA d2af|gbag fddc:|

